X:626
T: Tujia changqi jingsaige
N: C2145
O: China,Hubei Laifeng
S: I, 396]
N: Tujia
R: Shange, Wujuzi]
M: 2/4
L: 1/16
K: E
e2c2e2c2 | B6c2 | fge2fge2 | f8 |
f2ecf2ec | f4e2c2 | B2B2c2B2 | B8 |
e2c2e2c2 | B6c2 | f2e4c2 | e2c2B4 |
e2c2e2c2 | B6c2 | fge2fge2 | f8 |
f2ecf2ec | f4e2c2 | B2B2c2B2 | B8

@@@ Tune index: 7181
